X:158
T:Gold Ring, The
R:jig
H:See also #104, and "The Limerick Tinker", #294, #301
H:Another tune by the same name is #261.
D:Tommy Keane: The Piper's Chair
Z:id:hn-jig-158
M:6/8
K:G
d|cAG GFG|cAF G2d|cAG GFG|cAG F2d|cAG GFG|cAF G2E|FAd fed|cAF G2:|
|:d|cAd cAd|cAF G2d|cAd cAd|cAG F2d|
cAd cAd|cAF G2E|FAd fed|1 cAF G2:|2 cAF GBd||
|:~g3 gdc|BGG GBd|~f3 fcB|AFF F2d|~g3 gdc|BGG GBd|fag fed|cAF GBd:|
|:gdd fdd|gdd fdd|gdd fdd|cAF G (3Bcd|
gdd fdd|gdd fdd|fag fed|1 cAF GBd:|2 cAF G2A||
B2G A2G|d2G G2A|B2G A2G|cAG FGA|BAG AGF|GFD FGA|fag fed|cAF G2A|
B2G A2G|d2G G2A|B2G A2G|cAG FED|~B3 c2A|GFD FGA|fag fed|cAF G2||

